src/pos-icons/align-horizontal-left.svg

<svg height="24" viewBox="0 0 24 24" width="24" xmlns="http://www.w3.org/2000/svg"><path d="m22 13v6h-16v-6zm-16-8v6h10v-6zm-4-3v20h2v-20z"/></svg>

<?xml version="1.0" encoding="UTF-8"?><!DOCTYPE svg PUBLIC "-//W3C//DTD SVG 1.1//EN" "http://www.w3.org/Graphics/SVG/1.1/DTD/svg11.dtd"><svg xmlns="http://www.w3.org/2000/svg" xmlns:xlink="http://www.w3.org/1999/xlink" version="1.1" id="mdi-align-horizontal-left" width="24" height="24" viewBox="0 0 24 24"><path d="M22 13V19H6V13H22M6 5V11H16V5H6M2 2V22H4V2H2" /></svg>
